X: 1
T: Curlew, The
M: 12/8
L: 1/8
R: slide
K: Dmaj
|: d3 A2 d B2 A dBA | d3 A2 d B2 A aef | d3 A2 d B2 A dBA | g2f efd cAA aef:|
|: d3 fee aef cBA | d3 fee aAa fef | d3 fee aea cBA | g2 f efd cAA aef :|
|: d3 GBA dBd ecA | d3 GAB dBG aef | d3 GBA dBG ecA | g2 f efd cAA aef :|
|: d3 a2 f dfd ecA | d3 afd fdA aef | d3 a2 f dfd ecA | gfe f2 d cAA aef :|
| gfg ege GBd edc | gfe gdc BAA a3 ||
